X:1
T:[ID 5-29]
T:[ID 5-29]
T:Bezeichnung standardisiert: Lichtertanz; F\"ursten Tantz 8. In dieser Quelle auch als: Fechten Tantz In dieser Quelle auch als: Stich Tantz In anderer Quelle: Lichtertanz - Hs. des "Onkel Ewert" 1870 (Anm. S. Wascher);  Fechtler - Hs. aus Arendsee (Anm. S. Wascher);
T:Urheber unbekannt Datum in der hier transkribierten schriftlichen Quelle: 1775
C:Urheber unbekannt
C:Datum in der hier transkribierten schriftlichen Quelle: 1775
L:1/8
M:2/4
K:G
V:1 treble 
V:1
 B | G2 D2 | B,/A,/B,/C/ B,B, | B,FGA | B2 z B | G2 D2 | B,/A,/B,/C/ B,B, | B,FGA | B3 :: G | %10
 F2 F2 | FF/G/ FF | FEFG | F2 z D | B,FGA |"^O)" B2 z c |"^O)" B2 z c | B2 z c | dcBA | GABA | %20
 GF/E/ D/C/B,/A,/ | B,3 :| %22

